wp-content/themes/julialandauer/images/social/instagram.svg

<?xml version="1.0" encoding="utf-8"?>
<!-- Generated by IcoMoon.io -->
<!DOCTYPE svg PUBLIC "-//W3C//DTD SVG 1.1//EN" "http://www.w3.org/Graphics/SVG/1.1/DTD/svg11.dtd">
<svg version="1.1" xmlns="http://www.w3.org/2000/svg" xmlns:xlink="http://www.w3.org/1999/xlink" width="16" height="16" viewBox="0 0 16 16">
<path d="M13.344 0h-10.688c-1.461 0-2.656 1.195-2.656 2.656v10.688c0 1.461 1.195 2.656 2.656 2.656h10.688c1.461 0 2.656-1.195 2.656-2.656v-10.688c0-1.461-1.195-2.656-2.656-2.656zM5.122 7h5.756c0.109 0.313 0.169 0.65 0.169 1 0 1.68-1.367 3.047-3.047 3.047s-3.047-1.367-3.047-3.047c0-0.35 0.060-0.687 0.169-1zM14 7.001v5.999c0 0.55-0.45 1-1 1h-10c-0.55 0-1-0.45-1-1v-6h1.564c-0.073 0.322-0.111 0.657-0.111 1 0 2.507 2.040 4.547 4.547 4.547s4.547-2.040 4.547-4.547c0-0.343-0.039-0.678-0.111-1l1.564 0.001zM14 3.5c0 0.275-0.225 0.5-0.5 0.5h-1c-0.275 0-0.5-0.225-0.5-0.5v-1c0-0.275 0.225-0.5 0.5-0.5h1c0.275 0 0.5 0.225 0.5 0.5v1z" fill="#ffffff"></path>
</svg>

<svg xmlns="http://www.w3.org/2000/svg" width="16" height="16" viewBox="0 0 16 16"><path d="M13.344 0H2.656C1.196 0 0 1.195 0 2.656v10.688C0 14.804 1.195 16 2.656 16h10.688C14.804 16 16 14.805 16 13.344V2.656C16 1.196 14.805 0 13.344 0zM5.122 7h5.756c.11.313.17.65.17 1 0 1.68-1.368 3.047-3.048 3.047S4.953 9.68 4.953 8c0-.35.06-.687.17-1zM14 7v6c0 .55-.45 1-1 1H3c-.55 0-1-.45-1-1V7h1.564c-.073.322-.11.657-.11 1 0 2.507 2.04 4.547 4.546 4.547s4.547-2.04 4.547-4.547c0-.343-.04-.678-.11-1H14zm0-3.5c0 .275-.225.5-.5.5h-1c-.275 0-.5-.225-.5-.5v-1c0-.275.225-.5.5-.5h1c.275 0 .5.225.5.5v1z" fill="#fff"/></svg>
